!!!COM: k-ci-and-jojo
!!!OTL: all-my-life
!!!RNB: hooktheoryid: -kwxAwVDmKG
**kern	**text
*clefG2	*
*k[b-e-a-d-g-]	*
*M4/4	*
=1	=1
4gg-	Ebm
4ff	Db
4ee-	Ab/C
8.r	.
16a-	.
=2	=2
16ff	Db
16ff	.
16ff	.
[16ffL	.
16ff]J	Ab/C
8.dd-	.
4a-	Bbmin7
8.r	.
16dd-	.
=3	=3
4gg-	Ebm
4aa-	Db
4ee-	Ab/C
8ee-	.
8dd-	.
=4	=4
8r	Db
16dd-	.
16dd-	.
16dd-	Fm
16a-	.
16a-	.
16a-	.
16f	Bbmin7
8.d-	.
4r	.
=5	=5
4gg-	Ebm
4ff	Db
4ee-	Ab/C
8.r	.
16a-	.
=6	=6
16cc	Fm/Ab
16cc	.
16cc	.
[16ccL	.
16cc]J	Adim
8.dd-	.
4dd-	Bbmin7
8dd-	.
8cc	.
=7	=7
8.b-	Gb
8cc	Ab
8.dd-	Bbm
8cc	Ab
16cc	.
8dd-	Bbm
8.ee-	Ab/C
=8	=8
8dd-	Db
[8aa-L	.
8aa-]J	Ab/C
16aa-]	.
16gg-	.
4ff	Bbm
8dd-	Ab
8cc	.
=9	=9
8.b-	Gb
8cc	Ab
8.dd-	Bbm
8cc	Ab
16cc	.
8dd-	Bbm
8.ee-	Ab/C
=10	=10
2dd-	Db
2r	Bbm
*-	*-